X:4596
T:New Corsair,The. JMT087
O:england
M:6/8
L:1/8
S:J.Moore,Tyneside,1841.(63b)
R:Jig
A:Northumbria
K:G
d2Bd2B|G2G GAB|c2Ac2c|FAFD3|d2Bg2d|e2cg2e|edc BcA|""G3G3:|
|:FAc cAF|GBd dBG|FAc cAF|GBdd3|ece ege|dBd dgd|edc BcA|G3G2:|]
